icons-common/bast-logo-full.svg

<svg height="1em" width="auto" viewBox="0 0 134 32" fill="currentColor" xmlns="http://www.w3.org/2000/svg">
    <path d="M52.245 8.24887C51.1652 8.24887 48.9748 8.51288 48.0325 8.7561C44.6926 9.62175 42.9588 11.5483 43.1967 14.1292C43.3424 15.6925 44.207 16.8798 45.7903 17.6783C47.2975 18.4399 48.7465 18.8287 51.4938 19.2143C55.4457 19.7664 56.4867 20.0224 56.8186 20.528C57.0582 20.8864 56.8736 21.2929 56.341 21.5889C54.9406 22.3665 50.6844 22.2257 47.1453 21.2833C45.8178 20.9217 44.4417 20.3264 43.2097 19.7744V24.2547L43.6177 24.4003C45.0261 24.9075 48.6186 25.6355 50.6763 25.8292C52.0022 25.954 54.5164 25.9572 55.5882 25.8372C58.1979 25.5443 60.4337 24.5155 61.5103 23.1154C62.8475 21.3713 62.7374 18.8063 61.2642 17.4382C59.9723 16.2382 57.913 15.5853 53.796 15.0717C50.3994 14.6461 49.0541 14.3068 48.7853 13.8172C48.4616 13.2156 48.9116 12.6747 49.9753 12.3819C50.5338 12.2283 51.0163 12.1915 52.4134 12.1947C55.1786 12.1979 57.6879 12.6411 59.8298 13.51C60.3738 13.7276 60.8481 13.91 60.8886 13.91L60.9582 9.97057L60.6765 9.82656C59.1434 9.04891 54.8742 8.24887 52.2483 8.24567H52.245V8.24887ZM62.8119 9.44574V13.3628L69.2051 13.4124L69.2699 25.3347H74.1785L74.2255 13.4124L80.6203 13.3628V9.44574H62.8119ZM100.818 8.24887C93.9831 8.24887 89.5682 11.7163 89.5682 17.0814C89.5682 22.4465 93.9831 25.9364 100.818 25.9364C107.653 25.9364 112.099 22.4609 112.099 17.0814C112.099 11.7019 107.673 8.24887 100.818 8.24887ZM100.818 21.9009C97.4476 21.9009 95.4353 20.0992 95.4353 17.0814C95.4353 14.0636 97.4476 12.2619 100.818 12.2619C104.189 12.2619 106.235 14.0636 106.235 17.0814C106.235 20.0992 104.208 21.9009 100.818 21.9009ZM128.234 9.44574V18.0271L119.169 9.44574H113.44V25.2659H119.188V16.2286L128.839 25.2659H134.007V9.44574H128.232H128.234ZM82.4789 9.44574H88.2277V25.2643H82.4789V9.44574ZM16.3999 17.0366C18.0691 16.3326 19.0453 15.1421 19.0453 13.71C19.0453 11.1002 16.0373 9.47934 11.1918 9.47934H0V25.3011H11.8054C16.7367 25.3011 19.9244 23.5314 19.9244 20.792C19.9244 19.0735 18.6632 17.7519 16.3983 17.0382L16.3999 17.0366ZM10.4309 15.7949H5.74726V12.8155H10.3726C11.8151 12.8155 13.2689 13.27 13.2689 14.2828C13.2689 15.2957 11.8426 15.7933 10.4309 15.7933V15.7949ZM5.74726 18.7279H10.8987C12.7881 18.7279 14.0606 19.3712 14.0606 20.3248C14.0606 21.2785 12.7881 21.9425 10.8987 21.9425H5.74726V18.7295V18.7279ZM25.0548 18.3231C27.6775 15.4957 30.3018 12.6651 32.9423 9.82336C33.9445 13.5532 34.9466 17.2654 35.9439 20.9681C37.5547 21.3585 41.3722 22.2865 41.3738 22.2865C41.377 22.2897 37.8963 9.33373 35.8111 1.57965C35.6605 1.02442 35.5181 0.497984 35.3869 0.00195312C30.1076 5.69031 24.8816 11.3195 19.6135 16.9998C21.43 17.4414 23.2448 17.8831 25.0564 18.3247L25.0548 18.3231ZM39.2497 31.6151C41.1504 32.0663 43.051 32.1111 44.8626 31.8103C44.2879 31.7495 43.7132 31.6551 43.1385 31.5175C36.797 30.0118 32.6639 24.1603 33.1949 17.9295L28.5631 16.8318C27.9106 23.5986 32.3725 29.9814 39.253 31.6151H39.2497Z"
          />
</svg>

<svg xmlns="http://www.w3.org/2000/svg" width="auto" height="1em" fill="currentColor" viewBox="0 0 134 32">
    <path d="M52.245 8.249c-1.08 0-3.27.264-4.212.507-3.34.866-5.074 2.792-4.836 5.373q.218 2.348 2.593 3.55c1.508.76 2.956 1.15 5.704 1.535 3.952.552 4.993.808 5.325 1.314.24.358.055.765-.478 1.06-1.4.778-5.657.638-9.196-.305-1.327-.361-2.703-.957-3.935-1.509v4.48l.408.146c1.408.508 5 1.236 7.058 1.43 1.326.124 3.84.127 4.912.007 2.61-.293 4.846-1.322 5.922-2.722 1.337-1.744 1.227-4.309-.246-5.677-1.292-1.2-3.351-1.853-7.468-2.366-3.397-.426-4.742-.765-5.01-1.255-.324-.601.126-1.142 1.19-1.435.558-.154 1.04-.19 2.437-.187 2.766.003 5.275.446 7.417 1.315.544.218 1.018.4 1.059.4l.07-3.94-.283-.143c-1.533-.778-5.802-1.578-8.428-1.581h-.003zm10.567 1.197v3.917l6.393.05.065 11.922h4.909l.046-11.923 6.395-.05V9.447zm38.006-1.197c-6.835 0-11.25 3.467-11.25 8.832s4.415 8.855 11.25 8.855 11.281-3.475 11.281-8.855-4.426-8.832-11.281-8.832m0 13.652c-3.37 0-5.383-1.802-5.383-4.82 0-3.017 2.013-4.82 5.383-4.82s5.417 1.803 5.417 4.82-2.027 4.82-5.417 4.82m27.416-12.455v8.581l-9.065-8.581h-5.729v15.82h5.748v-9.037l9.651 9.037h5.168V9.446h-5.775zm-45.755 0h5.749v15.818h-5.75zm-66.08 7.59c1.67-.703 2.646-1.894 2.646-3.326 0-2.61-3.008-4.23-7.853-4.23H0V25.3h11.805c4.932 0 8.12-1.77 8.12-4.509 0-1.719-1.262-3.04-3.527-3.754zm-5.968-1.241H5.747v-2.98h4.626c1.442 0 2.896.455 2.896 1.468s-1.426 1.51-2.838 1.51zm-4.684 2.933H10.9c1.89 0 3.162.643 3.162 1.597s-1.273 1.617-3.162 1.617H5.747zm19.308-.405c2.622-2.827 5.247-5.658 7.887-8.5 1.002 3.73 2.005 7.442 3.002 11.145 1.61.39 5.428 1.319 5.43 1.319A32622 32622 0 0 0 35.387.002C30.107 5.69 24.882 11.32 19.613 17q2.726.662 5.443 1.325zM39.25 31.615c1.9.451 3.801.496 5.613.195q-.863-.088-1.724-.293c-6.342-1.505-10.475-7.357-9.944-13.587l-4.632-1.098c-.652 6.767 3.81 13.15 10.69 14.783z"/>
</svg>
